img/social-icons/viber.svg

<svg width="28" height="28" viewBox="0 0 28 28" fill="none" xmlns="http://www.w3.org/2000/svg">
<path fill-rule="evenodd" clip-rule="evenodd" d="M22.1667 28H5.83333C2.61217 28 0 25.3878 0 22.1667V5.83333C0 2.61217 2.61217 0 5.83333 0H22.1667C25.389 0 28 2.61217 28 5.83333V22.1667C28 25.3878 25.389 28 22.1667 28ZM21.2263 7.24383C20.7375 6.7935 18.76 5.3585 14.3582 5.33867C14.3582 5.33867 9.16533 5.026 6.63483 7.34767C5.22667 8.757 4.73083 10.8173 4.67833 13.3747C4.62583 15.932 4.55817 20.7223 9.17583 22.0208L9.1805 22.022L9.17817 24.0042C9.17817 24.0042 9.149 24.8068 9.67633 24.9702C10.3157 25.1685 10.6913 24.5583 11.3015 23.9015C11.6363 23.541 12.0983 23.0102 12.4472 22.6053C15.6053 22.8702 18.0343 22.2635 18.3108 22.1737C18.949 21.966 22.5563 21.504 23.1432 16.7148C23.7487 11.7752 22.8503 8.652 21.2263 7.24383ZM21.7607 16.3578C21.2648 20.3572 18.3388 20.6103 17.7998 20.783C17.57 20.8565 15.4362 21.3873 12.754 21.2123C12.754 21.2123 10.7543 23.6238 10.1302 24.2515C10.0333 24.3495 9.919 24.3892 9.842 24.3705C9.73467 24.3437 9.70433 24.2165 9.70667 24.031L9.723 20.7363C5.817 19.6513 6.0445 15.5738 6.08883 13.4388C6.13317 11.3038 6.5345 9.55383 7.72567 8.37783C9.8665 6.43883 14.2765 6.72817 14.2765 6.72817C18.0005 6.7445 19.7855 7.86683 20.1997 8.2425C21.5728 9.4185 22.2728 12.2337 21.7607 16.3578ZM14.7315 16.5982C14.7315 16.5982 15.0815 16.6285 15.2693 16.3952L15.6368 15.9332C15.8142 15.7045 16.2423 15.5575 16.6612 15.7908C17.2153 16.1035 17.9328 16.5958 18.424 17.0543C18.6947 17.283 18.7577 17.619 18.5733 17.9737L18.571 17.9807C18.382 18.3167 18.1277 18.6305 17.8068 18.9222L17.7998 18.928C17.4393 19.229 17.024 19.404 16.5795 19.2593L16.5713 19.2477C15.7745 19.0225 13.8623 18.0472 12.6432 17.0753C10.6493 15.5015 9.233 12.9068 8.83983 11.5162L8.82817 11.508C8.6835 11.0623 8.85967 10.647 9.1595 10.2877L9.16533 10.2807C9.45817 9.95983 9.772 9.70667 10.1068 9.5165L10.1138 9.51533C10.4685 9.32983 10.8045 9.39283 11.0332 9.6635C11.3342 9.975 11.9 10.7228 12.2967 11.4263C12.53 11.8452 12.3842 12.2733 12.1543 12.4507L11.6923 12.8182C11.459 13.006 11.4893 13.356 11.4893 13.356C11.4893 13.356 12.173 15.9448 14.7315 16.5982ZM18.7577 14.4515C18.8953 14.4503 19.0062 14.3383 19.005 14.2007C18.9922 12.5627 18.4905 11.2478 17.514 10.2947C16.5398 9.345 15.3125 8.8585 13.867 8.848H13.8658C13.7293 8.848 13.6173 8.95767 13.6162 9.09533C13.6162 9.233 13.7258 9.345 13.8635 9.34617C15.176 9.3555 16.2878 9.79417 17.1663 10.6517C18.0448 11.508 18.4952 12.7038 18.5068 14.2053C18.508 14.3418 18.6188 14.4515 18.7553 14.4515H18.7577ZM17.4475 13.9405H17.4417C17.304 13.937 17.1955 13.8238 17.199 13.6862C17.2177 12.8345 16.975 12.1462 16.4558 11.5792C15.939 11.0145 15.2297 10.7053 14.2858 10.6365C14.1493 10.626 14.0455 10.507 14.056 10.3705C14.0665 10.2328 14.1855 10.1302 14.322 10.1395C15.3837 10.2177 16.2248 10.5887 16.8233 11.2432C17.4242 11.8988 17.7182 12.7248 17.696 13.6967C17.6937 13.8332 17.5828 13.9405 17.4475 13.9405ZM16.17 13.5123C16.0382 13.5123 15.9285 13.4085 15.9215 13.2755C15.8795 12.4308 15.4817 12.0167 14.6685 11.9735C14.532 11.9653 14.4258 11.8487 14.434 11.711C14.441 11.5745 14.5577 11.4683 14.6953 11.4765C15.7675 11.5337 16.3637 12.1473 16.4185 13.251C16.4255 13.3887 16.3205 13.5053 16.1828 13.5123H16.17Z" fill="#FAFAFA"/>
</svg>

<svg width="28" height="28" fill="none" xmlns="http://www.w3.org/2000/svg"><path fill-rule="evenodd" clip-rule="evenodd" d="M22.167 28H5.833A5.834 5.834 0 010 22.167V5.833A5.834 5.834 0 015.833 0h16.334A5.833 5.833 0 0128 5.833v16.334A5.833 5.833 0 0122.167 28zm-.94-20.756c-.49-.45-2.467-1.885-6.869-1.905 0 0-5.193-.313-7.723 2.009-1.408 1.409-1.904 3.47-1.957 6.027-.052 2.557-.12 7.347 4.498 8.646l.005.001-.003 1.982s-.029.803.498.966c.64.199 1.015-.412 1.626-1.069.334-.36.796-.89 1.145-1.296 3.158.265 5.587-.341 5.864-.431.638-.208 4.245-.67 4.832-5.46.606-4.939-.293-8.062-1.917-9.47zm.534 9.114c-.496 4-3.422 4.252-3.961 4.425-.23.073-2.364.604-5.046.43 0 0-2 2.41-2.624 3.038-.097.098-.211.138-.288.12-.107-.027-.138-.154-.135-.34l.016-3.295c-3.906-1.085-3.679-5.162-3.634-7.297.044-2.135.446-3.885 1.637-5.061 2.14-1.94 6.55-1.65 6.55-1.65 3.724.017 5.51 1.139 5.924 1.514 1.373 1.176 2.073 3.992 1.56 8.116zm-7.03.24s.35.03.538-.203l.368-.462c.177-.229.605-.376 1.024-.142.554.313 1.272.805 1.763 1.263.27.229.334.565.15.92l-.003.007c-.189.336-.443.65-.764.941l-.007.006c-.36.301-.776.476-1.22.331l-.009-.011c-.797-.226-2.709-1.2-3.928-2.173-1.994-1.573-3.41-4.168-3.803-5.559l-.012-.008c-.144-.446.032-.861.332-1.22l.005-.007c.293-.321.607-.574.942-.764l.007-.002c.354-.185.69-.122.92.149.3.311.866 1.059 1.263 1.762.233.42.087.847-.143 1.025l-.462.367c-.233.188-.203.538-.203.538s.684 2.589 3.242 3.242zm4.027-2.146a.249.249 0 00.247-.251c-.013-1.638-.514-2.953-1.491-3.906-.974-.95-2.201-1.437-3.647-1.447h-.001a.25.25 0 00-.002.498c1.312.01 2.424.448 3.302 1.306.879.856 1.33 2.052 1.34 3.553a.248.248 0 00.25.246h.002zm-1.31-.511h-.006a.248.248 0 01-.243-.255c.019-.851-.224-1.54-.743-2.107-.517-.565-1.226-.874-2.17-.943a.249.249 0 01.036-.496c1.062.078 1.903.449 2.501 1.103.601.656.895 1.482.873 2.454a.248.248 0 01-.248.244zm-1.278-.429a.25.25 0 01-.249-.237c-.041-.844-.44-1.258-1.252-1.302a.25.25 0 01.026-.497c1.072.058 1.669.671 1.724 1.775a.248.248 0 01-.236.261h-.013z" fill="#FAFAFA"/></svg>
